packages/foundations/assets/icons/functional/images/technology/augmented_reality_24.svg

<svg width="24" height="24" viewBox="0 0 24 24" fill="none" xmlns="http://www.w3.org/2000/svg">
<g clip-path="url(#clip0_187_554)">
<path fill-rule="evenodd" clip-rule="evenodd" d="M11.9991 16.9963C12.5119 16.9963 12.9991 17.4117 12.9991 17.9963V19.3803L13.5628 19.0979C14.0564 18.8502 14.6574 19.0495 14.9052 19.5431C15.1352 20.0014 15.002 20.6052 14.4601 20.8854L12.4486 21.8951C12.2066 22.0165 11.8508 22.0485 11.5514 21.8951L9.54105 20.886C9.04746 20.6382 8.84817 20.0372 9.09593 19.5436C9.32599 19.0853 9.88713 18.8508 10.4383 19.0985L10.9991 19.3803V17.9963C10.9991 17.4441 11.4468 16.9963 11.9991 16.9963ZM19.9984 13.4963C20.537 13.4959 20.9991 13.9243 20.9991 14.4963L21.0009 16.9845C21.0011 17.321 20.8007 17.6964 20.4495 17.8797L17.8921 19.1627C17.3985 19.4105 16.7975 19.2112 16.5497 18.7176C16.3197 18.2592 16.4867 17.632 16.9948 17.3752L17.9061 16.9173L17.6238 16.7541C17.2053 16.5125 17.0619 15.9773 17.3035 15.5588C17.5265 15.1725 18.0397 14.9922 18.4988 15.2386L19.0001 15.5283L18.9991 14.4971C18.9987 13.9479 19.4597 13.4967 19.9984 13.4963ZM3.99908 13.4963C4.51192 13.4963 4.99908 13.9272 4.99908 14.4971V15.5273L5.49941 15.2386C5.91791 14.9969 6.45305 15.1403 6.69468 15.5588C6.91772 15.9452 6.80635 16.5121 6.37441 16.7541L6.09108 16.9163L6.9781 17.3617C7.48535 17.6156 7.66102 18.2303 7.42322 18.704C7.18542 19.1778 6.63542 19.398 6.08565 19.1491L3.55048 17.879C3.25002 17.7282 3.00581 17.408 2.99908 16.9963V14.4963C2.99908 13.9441 3.4468 13.4963 3.99908 13.4963ZM15.0669 8.62458C16.325 8.62458 16.9541 9.17789 16.9541 10.2845C16.9541 10.7374 16.8427 11.0849 16.6199 11.3268C16.4548 11.5018 16.2084 11.6382 15.8808 11.736C16.0983 11.8518 16.2792 12.0551 16.4233 12.3459C16.8054 13.1376 17.0923 13.7296 17.2843 14.1221C17.3969 14.3525 17.208 14.6196 16.7772 14.6196C16.5635 14.6196 16.1892 14.5551 16.0512 14.2789L15.2556 12.6122C15.1482 12.3858 15.0433 12.2326 14.9411 12.1529C14.852 12.0834 14.7091 12.0486 14.5126 12.0486H14.109V13.9925C14.109 14.3388 13.8282 14.6196 13.4819 14.6196C13.1356 14.6196 12.8548 14.3388 12.8548 13.9925V9.12417C12.8548 8.84825 13.0785 8.62458 13.3544 8.62458H15.0669ZM9.47438 8.62458C9.7369 8.62458 9.9746 8.77621 10.0729 9.03672L11.9805 14.095C12.0873 14.3782 12.0366 14.6196 11.5317 14.6196C11.0828 14.6196 10.9155 14.5067 10.8023 14.2262L10.4469 13.3456H8.22137L7.9221 14.1512C7.79614 14.4903 7.62289 14.6196 7.17398 14.6196C6.72514 14.6196 6.61687 14.3963 6.72514 14.1138L8.67021 9.03672C8.75498 8.81549 8.95 8.62458 9.19387 8.62458H9.47438ZM9.37433 10.2259L8.57945 12.4515H10.1691L9.37433 10.2259ZM14.9332 9.56649C15.3264 9.56649 15.5662 9.67844 15.6527 9.90233C15.6947 10.0078 15.7156 10.1751 15.7156 10.4042C15.7156 10.6847 15.6645 10.8803 15.5623 10.9909C15.4391 11.1273 15.2268 11.1955 14.9254 11.1955H14.1063V9.56649H14.9332ZM7.42487 5.25518C7.65174 5.7151 7.4866 6.31686 6.9781 6.59148L6.04708 7.04928L6.37441 7.23857C6.79291 7.48019 6.9363 8.01533 6.69468 8.43384C6.47164 8.82015 5.94074 8.99634 5.49941 8.75411L4.99908 8.46428V9.49634C4.99908 10.0739 4.51192 10.4963 3.99908 10.4963C3.48625 10.4963 2.99908 10.087 2.99908 9.50293V6.9451C2.99908 6.6067 3.205 6.21341 3.55048 6.04829L6.08565 4.80076C6.58095 4.55643 7.18054 4.75988 7.42487 5.25518ZM17.9061 4.80076L20.4433 6.04829C20.747 6.1981 20.9923 6.51038 20.9991 6.94581V9.49705C20.9987 10.0493 20.5507 10.4967 19.9984 10.4964C19.4855 10.496 19.0001 10.0841 19.0001 9.50214V8.46328L18.4988 8.75411C18.0803 8.99574 17.5451 8.85234 17.3035 8.43384C17.0805 8.04753 17.1747 7.50492 17.6238 7.23857L17.9511 7.04928L17.0236 6.59148C16.4658 6.3178 16.3598 5.67681 16.5692 5.25226C16.7786 4.82772 17.3331 4.53248 17.9061 4.80076ZM12.4424 2.10146L14.478 3.10564C14.9733 3.34997 15.1768 3.94956 14.9325 4.44486C14.7056 4.90478 14.1515 5.14933 13.5932 4.89928L12.9991 4.60528V5.99634C12.9991 6.54862 12.5514 6.99634 11.9991 6.99634C11.4862 6.99634 10.9991 6.59148 10.9991 5.99634V4.60628L10.4564 4.87478C9.93793 5.13987 9.34406 4.88028 9.11718 4.42036C8.89031 3.96044 9.01378 3.38791 9.5716 3.08114L11.5576 2.10146C11.7944 1.96821 12.2105 1.96821 12.4424 2.10146Z" fill="#1A1C1F"/>
</g>
<defs>
<clipPath id="clip0_187_554">
<rect width="24" height="24" fill="white"/>
</clipPath>
</defs>
</svg>

<svg xmlns="http://www.w3.org/2000/svg" width="24" height="24" fill="none"><g clip-path="url(#a)"><path fill="#1A1C1F" fill-rule="evenodd" d="M12 16.996c.512 0 1 .416 1 1v1.384l.563-.282a1 1 0 0 1 1.342.445.99.99 0 0 1-.445 1.342l-2.011 1.01a1.03 1.03 0 0 1-.898 0l-2.01-1.009a1 1 0 0 1-.445-1.342c.23-.459.791-.693 1.342-.445l.561.281v-1.384a1 1 0 0 1 1-1m7.998-3.5c.539 0 1.001.428 1.001 1l.002 2.489c0 .336-.2.711-.552.895l-2.557 1.283a1 1 0 0 1-1.342-.445 1.016 1.016 0 0 1 .445-1.343l.911-.458-.282-.163a.875.875 0 0 1-.32-1.195.885.885 0 0 1 1.195-.32l.501.29v-1.032c-.001-.55.46-1 .998-1M4 13.496c.513 0 1 .431 1 1.001v1.03l.5-.288a.875.875 0 0 1 1.196.32c.223.386.111.953-.32 1.195l-.284.162.887.446c.507.254.683.868.445 1.342s-.788.694-1.337.445L3.55 17.88c-.3-.15-.544-.471-.55-.883v-2.5a1 1 0 0 1 1-1m11.068-4.871q1.887 0 1.887 1.66 0 .679-.334 1.042-.248.262-.74.409.328.175.543.61.574 1.188.861 1.776c.113.23-.076.498-.507.498-.213 0-.588-.065-.726-.341l-.795-1.667q-.162-.34-.315-.46-.134-.103-.428-.103h-.404v1.944a.627.627 0 0 1-1.254 0V9.124a.5.5 0 0 1 .5-.5zm-5.593 0c.263 0 .5.151.599.412l1.907 5.058c.107.283.057.525-.448.525-.45 0-.617-.113-.73-.394l-.355-.88H8.22l-.299.805c-.126.34-.3.469-.748.469-.449 0-.557-.224-.449-.506L8.67 9.037c.085-.222.28-.412.524-.412zm-.1 1.6-.795 2.226h1.59zm5.56-.659q.588 0 .719.336.063.159.063.502 0 .42-.154.587-.184.204-.637.204h-.819V9.567zm-7.51-4.31c.228.46.063 1.06-.446 1.335l-.93.458.326.19a.875.875 0 0 1 .32 1.195.893.893 0 0 1-1.195.32l-.5-.29v1.032c0 .578-.487 1-1 1s-1-.409-1-.993V6.945c0-.338.206-.732.551-.897l2.536-1.247a1 1 0 0 1 1.339.454M17.907 4.8l2.537 1.247c.304.15.55.462.556.898v2.551A1 1 0 0 1 19 9.502V8.463l-.501.291a.875.875 0 0 1-.875-1.515l.327-.19-.927-.458c-.558-.273-.664-.914-.455-1.339s.764-.72 1.337-.451m-5.464-2.7 2.036 1.005a1 1 0 0 1 .454 1.339c-.226.46-.78.704-1.339.454L13 4.605v1.391a1 1 0 1 1-2 0v-1.39l-.543.269c-.518.265-1.112.005-1.339-.455s-.103-1.032.455-1.339l1.986-.98c.236-.133.652-.133.884 0" clip-rule="evenodd"/></g><defs><clipPath id="a"><path fill="#fff" d="M0 0h24v24H0z"/></clipPath></defs></svg>
